packages/kaspersky-hexa-ui-icons/src/iconsSVGs/24/VRouter.svg

<svg width="24" height="24" viewBox="0 0 24 24" fill="none" xmlns="http://www.w3.org/2000/svg">
<path d="M7.79289 9.79289C8.18342 9.40237 8.81658 9.40237 9.20711 9.79289L10.7071 11.2929C11.0976 11.6834 11.0976 12.3166 10.7071 12.7071L9.20711 14.2071C8.81658 14.5976 8.18342 14.5976 7.79289 14.2071C7.46571 13.8799 7.41264 13.3824 7.63369 13H6C5.44772 13 5 12.5523 5 12C5 11.4477 5.44772 11 6 11H7.63369C7.41264 10.6176 7.46571 10.1201 7.79289 9.79289Z" fill="black"/>
<path d="M14.2071 9.20711C14.5976 8.81658 14.5976 8.18342 14.2071 7.79289C13.8799 7.46571 13.3824 7.41264 13 7.63369V6C13 5.44772 12.5523 5 12 5C11.4477 5 11 5.44772 11 6V7.63369C10.6176 7.41264 10.1201 7.46571 9.79289 7.79289C9.40237 8.18342 9.40237 8.81658 9.79289 9.20711L11.2929 10.7071C11.6834 11.0976 12.3166 11.0976 12.7071 10.7071L14.2071 9.20711Z" fill="black"/>
<path d="M14.2071 16.2071C14.5976 15.8166 14.5976 15.1834 14.2071 14.7929L12.7071 13.2929C12.3166 12.9024 11.6834 12.9024 11.2929 13.2929L9.79289 14.7929C9.40237 15.1834 9.40237 15.8166 9.79289 16.2071C10.1201 16.5343 10.6176 16.5874 11 16.3663V18C11 18.5523 11.4477 19 12 19C12.5523 19 13 18.5523 13 18V16.3663C13.3824 16.5874 13.8799 16.5343 14.2071 16.2071Z" fill="black"/>
<path d="M14.7929 14.2071C15.1834 14.5976 15.8166 14.5976 16.2071 14.2071C16.5343 13.8799 16.5874 13.3824 16.3663 13H18C18.5523 13 19 12.5523 19 12C19 11.4477 18.5523 11 18 11H16.3663C16.5874 10.6176 16.5343 10.1201 16.2071 9.79289C15.8166 9.40237 15.1834 9.40237 14.7929 9.79289L13.2929 11.2929C12.9024 11.6834 12.9024 12.3166 13.2929 12.7071L14.7929 14.2071Z" fill="black"/>
<path fill-rule="evenodd" clip-rule="evenodd" d="M2 12C2 6.47715 6.47715 2 12 2C17.5228 2 22 6.47715 22 12C22 17.5228 17.5228 22 12 22C6.47715 22 2 17.5228 2 12ZM12 4C7.58172 4 4 7.58172 4 12C4 16.4183 7.58172 20 12 20C16.4183 20 20 16.4183 20 12C20 7.58172 16.4183 4 12 4Z" fill="black"/>
</svg>

<svg xmlns="http://www.w3.org/2000/svg" width="24" height="24" fill="none" viewBox="0 0 24 24"><path fill="#000" fill-rule="evenodd" d="M12 2C6.4772 2 2 6.4772 2 12s4.4772 10 10 10 10-4.4772 10-10S17.5228 2 12 2M4 12c0-4.4183 3.5817-8 8-8s8 3.5817 8 8-3.5817 8-8 8-8-3.5817-8-8m10.2071-2.7929c.3905-.3905.3905-1.0237 0-1.4142-.3272-.3272-.8247-.3803-1.2071-.1592V6c0-.5523-.4477-1-1-1s-1 .4477-1 1v1.6337c-.3824-.221-.8799-.168-1.2071.1592-.3905.3905-.3905 1.0237 0 1.4142l1.5 1.5c.3905.3905 1.0237.3905 1.4142 0zm-5 .5858c-.3905-.3905-1.0237-.3905-1.4142 0-.3272.3272-.3803.8247-.1592 1.2071H6c-.5523 0-1 .4477-1 1s.4477 1 1 1h1.6337c-.221.3824-.168.8799.1592 1.2071.3905.3905 1.0237.3905 1.4142 0l1.5-1.5c.3905-.3905.3905-1.0237 0-1.4142zm5.5858 4.4142c.3905.3905 1.0237.3905 1.4142 0 .3272-.3272.3803-.8247.1592-1.2071H18c.5523 0 1-.4477 1-1s-.4477-1-1-1h-1.6337c.2211-.3824.168-.8799-.1592-1.2071-.3905-.3905-1.0237-.3905-1.4142 0l-1.5 1.5c-.3905.3905-.3905 1.0237 0 1.4142zm-.5858 2c.3905-.3905.3905-1.0237 0-1.4142l-1.5-1.5c-.3905-.3905-1.0237-.3905-1.4142 0l-1.5 1.5c-.3905.3905-.3905 1.0237 0 1.4142.3272.3272.8247.3803 1.2071.1592V18c0 .5523.4477 1 1 1s1-.4477 1-1v-1.6337c.3824.2211.8799.168 1.2071-.1592"/></svg>
